X: 8027
T: Connemara, The
R: mazurka
M: 3/4
K: Dmajor
M:9/8
|:B|A2 F FGF d2 A|B2 d A2 F G2 B|A2 F FGF d2 A|B2 d A2 F D2:|
|:g|f2 d d2 c d2 =f|e2 =c c2 B c2 e|1 d2 B B2 ^A B2 d|c2 A A2 ^G A2:|
[2 f2 d e2 c d2 A|Bcd e2 c d2||

